src/images/star.svg

<svg width="86" height="86" fill="none" xmlns="http://www.w3.org/2000/svg"><g clip-path="url(#a)"><path d="M42.77 3.96a59.778 59.778 0 0 0 38.81 38.81 59.778 59.778 0 0 0-38.81 38.81A59.778 59.778 0 0 0 3.96 42.77 59.735 59.735 0 0 0 42.77 3.96z" fill="#FAD645"/><path d="m42.77 85.55-1.15-3.6C35.87 63.89 21.66 49.67 3.6 43.92L0 42.77l3.6-1.15C21.66 35.87 35.87 21.66 41.63 3.6L42.78 0l1.15 3.6c5.75 18.06 19.97 32.27 38.03 38.03l3.6 1.15-3.6 1.15C63.9 49.68 49.69 63.9 43.93 81.96l-1.15 3.6-.01-.01zM7.6 42.77a61.129 61.129 0 0 1 35.17 35.17 61.129 61.129 0 0 1 35.17-35.17C61.78 36.58 48.95 23.76 42.77 7.6A61.129 61.129 0 0 1 7.6 42.77z" fill="#0A002D"/></g><defs><clipPath id="a"><path fill="#fff" d="M0 0h85.55v85.55H0z"/></clipPath></defs></svg>

<svg width="86" height="86" viewBox="0 0 86 86" fill="none" xmlns="http://www.w3.org/2000/svg">
<g clip-path="url(#clip0_10_153)">
<path d="M42.77 3.96002C48.65 22.42 63.12 36.89 81.58 42.77C63.12 48.65 48.65 63.12 42.77 81.58C36.89 63.12 22.43 48.66 3.96002 42.77C22.43 36.89 36.89 22.43 42.77 3.96002Z" fill="#FAD645"/>
<path d="M42.77 85.55L41.62 81.95C35.87 63.89 21.66 49.67 3.6 43.92L0 42.77L3.6 41.62C21.66 35.87 35.87 21.66 41.63 3.6L42.78 0L43.93 3.6C49.68 21.66 63.9 35.87 81.96 41.63L85.56 42.78L81.96 43.93C63.9 49.68 49.69 63.9 43.93 81.96L42.78 85.56L42.77 85.55ZM7.6 42.77C23.76 48.96 36.58 61.78 42.77 77.94C48.96 61.78 61.78 48.96 77.94 42.77C61.78 36.58 48.95 23.76 42.77 7.6C36.58 23.76 23.76 36.58 7.6 42.77Z" fill="#0A002D"/>
</g>
<defs>
<clipPath id="clip0_10_153">
<rect width="85.55" height="85.55" fill="white"/>
</clipPath>
</defs>
</svg>
